!!!!SEGMENT: Wil2037-O_Salutaris_hostia.krn
!!!id: Wil2037
!!!AGN: Motet
!!!SCT: Zenck (1952)
!!!voices: 6
!!!COM: Adrian Willaert
!!!OTL: O Salutaris hostia
**kern	**kern	**kern	**kern	**kern	**kern
*part6	*part5	*part4	*part3	*part2	*part1
*staff6	*staff5	*staff4	*staff3	*staff2	*staff1
*I"Bassus	*I"Tenor II	*I"Tenor I	*I"Altus II	*I"Altus I	*I"Superius
*I'B	*I'T. II	*I'T. I	*I'A. II	*I'A. I	*I'S
*clefF4	*clefGv2	*clefGv2	*clefG2	*clefG2	*clefG2
*k[b-]	*k[b-]	*k[b-]	*k[b-]	*k[b-]	*k[b-]
*F:	*F:	*F:	*F:	*F:	*F:
*M2/1	*M2/1	*M2/1	*M2/1	*M2/1	*M2/1
*met(C|)	*met(C|)	*met(C|)	*met(C|)	*met(C|)	*met(C|)
!!section: Prima pars: O Salutaris hostia
!!!OMD: Prima pars: O Salutaris hostia
=1	=1	=1	=1	=1	=1
!	!LO:TX:a:t=Canon&colon; tenor II/altus II at the fifth	!	!	!	!
0F	0r	0r	0r	0r	0r
=2	=2	=2	=2	=2	=2
1.A	0r	0r	0r	0c	0r
2A	.	.	.	.	.
=3	=3	=3	=3	=3	=3
0B-y	0r	0r	0r	0d	0f
=4	=4	=4	=4	=4	=4
0c	0F	0r	0r	[0f	0a
=5	=5	=5	=5	=5	=5
1.F	0A	0r	0r	1f]	1.cc
.	.	.	.	1f	.
4E	.	.	.	.	2dd
4D	.	.	.	.	.
=6	=6	=6	=6	=6	=6
[0C	[0c	0r	0r	0g	1ee
.	.	.	.	.	[1cc
=7	=7	=7	=7	=7	=7
0C]	1c]	0r	0r	0e	2cc]
.	.	.	.	.	4b-y
.	.	.	.	.	4a
.	1c	.	.	.	2.g
.	.	.	.	.	4a
=8	=8	=8	=8	=8	=8
1BB-y	0d	0B-y	0r	0f	2.b-y
.	.	.	.	.	4cc
2.B-y	.	.	.	.	[1dd
4A	.	.	.	.	.
=9	=9	=9	=9	=9	=9
0G	0B-y	0d	0r	0g	1dd]
.	.	.	.	.	1b-y
=10	=10	=10	=10	=10	=10
0F	0r	1.f	0c	1a	[0cc
.	.	.	.	1A	.
.	.	2f	.	.	.
=11	=11	=11	=11	=11	=11
[0C	0r	0g	0e	1.c	0cc]
.	.	.	.	4B-y	.
.	.	.	.	4A	.
=12	=12	=12	=12	=12	=12
0C]	0r	0e	[0g	1G	1r
.	.	.	.	1c	1cc
=13	=13	=13	=13	=13	=13
0G	0r	1.d	1g]	2.B-y	1dd
.	.	.	.	4c	.
.	.	.	1g	[1d	2.b-y
.	.	2e	.	.	.
.	.	.	.	.	4cc
=14	=14	=14	=14	=14	=14
1D	0F	1.f	0a	2d]	1dd
.	.	.	.	4c	.
.	.	.	.	4B-y	.
1F	.	.	.	1A	[1cc
.	.	4e	.	.	.
.	.	4d	.	.	.
=15	=15	=15	=15	=15	=15
2.F	0A	1c	0f	1.a	1cc]
4E	.	.	.	.	.
1D	.	1d	.	.	1ff
.	.	.	.	4g	.
.	.	.	.	4f	.
=16	=16	=16	=16	=16	=16
1C	[0c	1G	0r	2g	1ee
.	.	.	.	2e	.
[1F	.	[1A	.	2.f	[1cc
.	.	.	.	4g	.
=17	=17	=17	=17	=17	=17
1F]	1c]	2A]	0r	1a	2cc]
.	.	2F	.	.	2dd
1E	1c	1G	.	1g	1ee
=18	=18	=18	=18	=18	=18
1D	0d	1A	0r	2r	2.ff
.	.	.	.	1f	.
.	.	.	.	.	4ee
1r	.	1B-y	.	.	4dd
.	.	.	.	.	4cc
.	.	.	.	2f	[2dd
=19	=19	=19	=19	=19	=19
1r	0B-y	2G	0r	2.g	4dd]
.	.	.	.	.	4cc
.	.	1d	.	.	4b-y
.	.	.	.	4f	4a
1G	.	.	.	2d	1b-y
.	.	2B-y	.	2e	.
=20	=20	=20	=20	=20	=20
2.F	0r	2c	0c	2.f	1a
.	.	1A	.	.	.
4E	.	.	.	4g	.
1F	.	.	.	1a	[1cc
.	.	2F	.	.	.
=21	=21	=21	=21	=21	=21
0C	0c	2G	0e	1g	2cc]
.	.	1c	.	.	4b-y
.	.	.	.	.	4a
.	.	.	.	2c	2.g
.	.	4B-y	.	[2g	.
.	.	4A	.	.	4a
=22	=22	=22	=22	=22	=22
0r	0d	1G	[0g	2g]	2b-y
.	.	.	.	4f	1cc
.	.	.	.	4e	.
.	.	[1G	.	1d	.
.	.	.	.	.	2bni
=23	=23	=23	=23	=23	=23
0C	0e	1G]	1g]	0c	1cc
.	.	[1c	1g	.	1r
=24	=24	=24	=24	=24	=24
[0F	[0c	1c]	0a	0r	0cc
.	.	[1A	.	.	.
=25	=25	=25	=25	=25	=25
0F]	0c]	1A]	0f	0r	0a
.	.	[1c	.	.	.
=26	=26	=26	=26	=26	=26
0C	0r	2c]	0r	0r	1g
.	.	2d	.	.	.
.	.	1e	.	.	[1cc
=27	=27	=27	=27	=27	=27
0G	0r	1.d	0g	0r	1cc]
.	.	.	.	.	1b-y
.	.	4c	.	.	.
.	.	4B-y	.	.	.
=28	=28	=28	=28	=28	=28
2.F	0f	1A	0a	1c	1cc
4E	.	.	.	.	.
2.D	.	[1F	.	2.d	[1ff
4C	.	.	.	4e	.
=29	=29	=29	=29	=29	=29
0BB-y	0d	0F]	0b-y	2f	1ff]
.	.	.	.	2d	.
.	.	.	.	1f	1dd
=30	=30	=30	=30	=30	=30
0C	1c	0r	[0g	2e	2.ee
.	.	.	.	2c	.
.	.	.	.	.	4ff
.	[1c	.	.	1e	[1gg
=31	=31	=31	=31	=31	=31
0G	1c]	1r	0g]	1d	2gg]
.	.	.	.	.	4ff
.	.	.	.	.	4ee
.	1B-y	[1d	.	2r	2.dd
.	.	.	.	[2d	.
.	.	.	.	.	4ee
=32	=32	=32	=32	=32	=32
1D	1.A	1d]	0r	4d]	2ff
.	.	.	.	4e	.
.	.	.	.	1f	2dd
1F	.	1A	.	.	[1cc
.	4G	.	.	4e	.
.	4F	.	.	4d	.
=33	=33	=33	=33	=33	=33
0C	1G	1c	0r	2e	2cc]
.	.	.	.	1f	4b-y
.	.	.	.	.	4a
.	1G	[1c	.	.	1g
.	.	.	.	2e	.
=34	=34	=34	=34	=34	=34
1r	0F	2c]	0cc	0f	1a
.	.	2B-y	.	.	.
[1c	.	2.A	.	.	2r
.	.	.	.	.	[2f
.	.	4G	.	.	.
=35	=35	=35	=35	=35	=35
1c]	0f	1F	0a	0r	4f]
.	.	.	.	.	4g
.	.	.	.	.	4a
.	.	.	.	.	4b-y
1F	.	1A	.	.	2cc
.	.	.	.	.	[2dd
=36	=36	=36	=36	=36	=36
0G	0d	2B-y	1g	1r	2dd]
.	.	2c	.	.	1cc
.	.	2d	[1g	2r	.
.	.	[2G	.	2d	2bni
=37	=37	=37	=37	=37	=37
1C	0c	1G]	1g]	4e	0cc
.	.	.	.	4f	.
.	.	.	.	4g	.
.	.	.	.	4e	.
1F	.	2A	1f	4f	.
.	.	.	.	4g	.
.	.	2F	.	[2a	.
=38	=38	=38	=38	=38	=38
1C	0c	1G	1.e	4a]	2r
.	.	.	.	4g	.
.	.	.	.	1g	1cc
1r	.	1A	.	.	.
.	.	.	4d	2f#i	2a
.	.	.	4c	.	.
=39	=39	=39	=39	=39	=39
1r	0B-y	1G	1d	2g	2.b-y
.	.	.	.	2d	.
.	.	.	.	.	4cc
1BB-y	.	[1F	1d	2.f	4dd
.	.	.	.	.	4ee
.	.	.	.	.	[2ff
.	.	.	.	4g	.
=40	=40	=40	=40	=40	=40
1.F	1.A	1F]	0c	0a	2ff]
.	.	.	.	.	4ee
.	.	.	.	.	4dd
.	.	2.A	.	.	2.cc
4E	4G	.	.	.	.
4D	4F	4B-y	.	.	4dd
=41	=41	=41	=41	=41	=41
0C	1G	1c	0cc	1r	2ee
.	.	.	.	.	1ff
.	1G	2r	.	1c	.
.	.	2G	.	.	2ee
=42	=42	=42	=42	=42	=42
1F	0F	1A	0a	1c	2.ff
.	.	.	.	.	4ee
1r	.	1F	.	[1d	2dd
.	.	.	.	.	[2cc
=43	=43	=43	=43	=43	=43
1r	0r	0G	0g	1d]	2cc]
.	.	.	.	.	2bni
1C	.	.	.	[1c	2.cc
.	.	.	.	.	4dd
=44	=44	=44	=44	=44	=44
0C	0r	0c	0g	2c]	0ee
.	.	.	.	4B-y	.
.	.	.	.	4A	.
.	.	.	.	2.G	.
.	.	.	.	4A	.
=45	=45	=45	=45	=45	=45
0D	0r	1r	0f	2B-y	0dd
.	.	.	.	1c	.
.	.	1F	.	.	.
.	.	.	.	2Bni	.
=46	=46	=46	=46	=46	=46
1C	0r	1G	1.e	1.c	2r
.	.	.	.	.	2g
1r	.	1A	.	.	[1cc
.	.	.	4d	2A	.
.	.	.	4c	.	.
=47	=47	=47	=47	=47	=47
0r	0r	1F	1d	1a	2cc]
.	.	.	.	.	4b-y
.	.	.	.	.	4a
.	.	1G	1d	1g	1b-y
=48	=48	=48	=48	=48	=48
0r	0F	2.A	0c	1.f	2.cc
.	.	4B-y	.	.	4b-y
.	.	[1c	.	.	1a
.	.	.	.	2e	.
=49	=49	=49	=49	=49	=49
0r	0G	1c]	0r	2.d	0g
.	.	.	.	4c	.
.	.	1B-y	.	1d	.
=50	=50	=50	=50	=50	=50
0F	0A	1c	0r	1r	2.f
.	.	.	.	.	4g
.	.	[1f	.	1c	[1a
=51	=51	=51	=51	=51	=51
1D	1.F	2f]	0r	1d	1a]
.	.	2e	.	.	.
1BB-y	.	2.d	.	[1f	1r
.	2G	.	.	.	.
.	.	8cL	.	.	.
.	.	8B-yJ	.	.	.
=52	=52	=52	=52	=52	=52
1F	2.A	1c	0r	2f]	1r
.	.	.	.	1a	.
.	4B-y	.	.	.	.
1A	[1c	1F	.	.	1f
.	.	.	.	4g	.
.	.	.	.	4f	.
=53	=53	=53	=53	=53	=53
0G	2c]	0r	0r	2e	0g
.	4B-y	.	.	1f	.
.	4A	.	.	.	.
.	1B-y	.	.	.	.
.	.	.	.	2e	.
=54	=54	=54	=54	=54	=54
1.F	0c	0r	0c	2f	2.a
.	.	.	.	2.a	.
.	.	.	.	.	4b-y
.	.	.	.	.	1cc
.	.	.	.	4g	.
2A	.	.	.	4e	.
.	.	.	.	4f	.
=55	=55	=55	=55	=55	=55
2G	0r	0r	0d	2g	2b-y
2D	.	.	.	1f	1a
1B-y	.	.	.	.	.
.	.	.	.	4e	2g
.	.	.	.	4d	.
=56	=56	=56	=56	=56	=56
0A	0r	0r	0e	[0c	2.a
.	.	.	.	.	4b-y
.	.	.	.	.	4cc
.	.	.	.	.	4dd
.	.	.	.	.	[2cc
=57	=57	=57	=57	=57	=57
2.A	0F	2r	1.c	1c]	4cc]
.	.	.	.	.	4b-y
.	.	1f	.	.	4a
4B-y	.	.	.	.	4g
1c	.	.	.	2.A	1a
.	.	2f	2d	.	.
.	.	.	.	4B-y	.
=58	=58	=58	=58	=58	=58
1C	0G	2e	2.e	1c	2g
.	.	2c	.	.	1cc
.	.	.	4f	.	.
1r	.	[1d	[1g	1r	.
.	.	.	.	.	2b-y
=59	=59	=59	=59	=59	=59
0D	0A	0d_	2g]	0r	2a
.	.	.	4f#i	.	2.dd
.	.	.	4e	.	.
.	.	.	1f#i	.	.
.	.	.	.	.	4cc
.	.	.	.	.	2a
=60	=60	=60	=60	=60	=60
1G	1.G	1d]	0g	0r	1b-y
1C	.	1e	.	.	1cc
.	2G	.	.	.	.
=61	=61	=61	=61	=61	=61
1G	1B-y	2d	0r	0r	1dd
.	.	1g	.	.	.
1A	1c	.	.	.	2.cc
.	.	2f#i	.	.	.
.	.	.	.	.	8b-yL
.	.	.	.	.	8aJ
=62	=62	=62	=62	=62	=62
0G	0d	1g	0r	1r	2b-y
.	.	.	.	.	1cc
.	.	[1G	.	2.g	.
.	.	.	.	.	2bni
.	.	.	.	4f	.
=63	=63	=63	=63	=63	=63
1C	0c	1G]	0c	4e	1cc
.	.	.	.	4d	.
.	.	.	.	1e	.
1r	.	1A	.	.	2r
.	.	.	.	2f	2cc
=64	=64	=64	=64	=64	=64
0r	0r	0B-y	0d	2g	2b-y
.	.	.	.	1f	1a
.	.	.	.	4e	2g
.	.	.	.	4d	.
=65	=65	=65	=65	=65	=65
0r	0r	[0A	0e	2c	1a
.	.	.	.	1d	.
.	.	.	.	.	1ee
.	.	.	.	2c#i	.
=66	=66	=66	=66	=66	=66
1D	0r	1A]	1.d	2d	2.ff
.	.	.	.	1a	.
.	.	.	.	.	4ee
1G	.	1B-y	.	.	2dd
.	.	.	2d	2g	4cc
.	.	.	.	.	4b-y
=67	=67	=67	=67	=67	=67
2F	0r	1A	1f	2a	2cc
2D	.	.	.	2.f	2dd
1G	.	1B-y	1g	.	1b-y
.	.	.	.	4e	.
.	.	.	.	4e	.
.	.	.	.	8dL	.
.	.	.	.	8eJ	.
=68	=68	=68	=68	=68	=68
0F	0A	[0c	0a	0f	1a
.	.	.	.	.	2.cc
.	.	.	.	.	4dd
=69	=69	=69	=69	=69	=69
0C	0c	1c]	0g	1r	4ee
.	.	.	.	.	4ff
.	.	.	.	.	1ee
.	.	1G	.	[1g	.
.	.	.	.	.	4dd
.	.	.	.	.	4cc
=70	=70	=70	=70	=70	=70
0G	0B-y	2r	0r	2g]	1dd
.	.	2.g	.	4f	.
.	.	.	.	4e	.
.	.	.	.	2d	1g
.	.	4f	.	.	.
.	.	4d	.	2g	.
.	.	4e	.	.	.
=71	=71	=71	=71	=71	=71
2.F	1A	2f	0r	2c	1a
.	.	1c	.	1a	.
4E	.	.	.	.	.
1D	1F	.	.	.	1r
.	.	2Bni	.	4g	.
.	.	.	.	4f	.
=72	=72	=72	=72	=72	=72
0C	1G	0c	0r	2e	1r
.	.	.	.	1f	.
.	1G	.	.	.	[1cc
.	.	.	.	2e	.
=73	=73	=73	=73	=73	=73
1r	0F	1.A	0r	0f	2cc]
.	.	.	.	.	2b-y
[1c	.	.	.	.	1a
.	.	2F	.	.	.
=74	=74	=74	=74	=74	=74
2c]	0r	0c	0e	2r	1g
2B-y	.	.	.	2g	.
1A	.	.	.	2c	1cc
.	.	.	.	[2e	.
=75	=75	=75	=75	=75	=75
2.G	0r	1B-y	0g	4e]	1dd
.	.	.	.	4d	.
.	.	.	.	1d	.
4F	.	.	.	.	.
1E	.	1G	.	.	1ee
.	.	.	.	2c#i	.
=76	=76	=76	=76	=76	=76
1D	0A	1.A	0f	1d	2.ff
.	.	.	.	.	8eeL
.	.	.	.	.	8ddJ
1F	.	.	.	1a	[1cc
.	.	2F	.	.	.
=77	=77	=77	=77	=77	=77
1C	0c	1G	1e	1g	1cc]
1F	.	1A	1c	1f	2r
.	.	.	.	.	[2ff
=78	=78	=78	=78	=78	=78
0BB-y	0B-y	0F	1d	2r	2ff]
.	.	.	.	2f	1dd
.	.	.	1d	2.f	.
.	.	.	.	.	2b-y
.	.	.	.	4g	.
=79	=79	=79	=79	=79	=79
0F	1A	1F	[0cl	4a	2cc
.	.	.	.	4b-y	.
.	.	.	.	1a	2.f
.	1F	2.A	.	.	.
.	.	.	.	.	4g
.	.	.	.	4g	2a
.	.	4B-y	.	4f	.
=80	=80	=80	=80	=80	=80
0C	1G	0c	0c_	2e	2g
.	.	.	.	1f	2.cc
.	1G	.	.	.	.
.	.	.	.	.	4b-y
.	.	.	.	2e	2g
=81	=81	=81	=81	=81	=81
00Fl	00Fl	00Al	00c]	00fl	00al
==	==	==	==	==	==
*-	*-	*-	*-	*-	*-
!!!system-decoration: [*]
!!!RDF**kern: i = editorial accidental
!!!RDF**kern: l = terminal long
!!!ENC: Benjamin Ory
!!!END: 2021/1/5
!!!EED: Benjamin Ory
!!!EEV: 2022/01/12
!!!YEC: Copyright 2022 Benjamin Ory, All Rights Reserved
!!!ONB: Translated from MusicXML on 2022/01/12
